!! 00000] TT[00
!! NN
!!!OTL: Sanwu jiaojiao ritou an
!!!ARE: Asia, China,ÿHainan, Wenchang
!! Ethnic Group: Han
!! II, 386
!!!SCT: C0243
!!!YEM: Copyright 1995, estate of Helmut Schaffrath.
**kern
*ICvox
*Ivox
*M2/4
*k[b-e-]
*B-:
{2ccc
=1
8ccc
8bb-
8gg
8ff
=2
8gg
8bb-
[4ccc
=3
4ccc]
8ddd
8bb-
=4
2ccc}
=5
{8gg
8bb-
8ccc
8eee-
=6
8bb-
8gg
4ff
=7
8gg
8bb-
[4ccc
=8
2ccc]}
=9
{8ddd
16fff
16ddd
8ccc
8ccc
=10
8bb-
16ccc
16ddd
4ccc}
=11
{8gg
8bb-
8ccc
8eee-
=12
8bb-
8gg
4ff}
=13
{8ee-
8ff
8cc
8ee-
=14
16gg
16ff
8ee-
4ff
=15
8cc
8ee-
[4ff
=16
2ff]}
=17
{8fff
8ddd
8fff
16ddd
16fff
=18
16ccc
16ddd
8bb-
4ccc}
=19
{8gg
8bb-
8ccc
16ddd
16ddd
=20
8bb-
8gg
4ff
=21
8ccc
8bb-
[4ccc
=22
2ccc]}
==
!!!AGN: Shange, Muniu ge. Kongsu rikou qinlue
!! 
!!!ONB: ESAC (Essen Associative Code) Database: CHINA
!!!AMT: simple duple
!!!AIN: vox
!!!EED: Helmut Schaffrath
!!!EEV: 1.0
*-
!!!ONB: Tied note syntax fixed by Craig Sapp, 2004/05/03/
